X:1
T: Lady Jane Gray's Reel
C:
R:Reel
Q: 232
K:G
M:4/4
L:1/8
|:DG GF Ad de|AB cA dB cA|DG GF Ad de|fd cA BG G2|
DG GF Ad de|AB cA dB cA|DG GF Ad de|fd cA BG G2|
dg gf g2 ag|ed de fg af|dg gf g2 ag|fd cA BG G2|
dg gf g2 ag|ed de fg af|dg gf g2 ag|fd cA BG G2:|
